resources/svg/eye-icon.svg

<svg xmlns="http://www.w3.org/2000/svg" width="22" height="22" viewBox="0 0 22 22" fill="none">
    <path
        d="M21.8035 10.6702C21.7659 10.607 20.8612 9.10512 19.0852 7.59752C16.7236 5.59286 13.9278 4.5332 11 4.5332C8.07224 4.5332 5.27643 5.59281 2.91483 7.59748C1.13876 9.10512 0.234137 10.607 0.196496 10.6702L0 11L0.196496 11.3299C0.234137 11.3931 1.1388 12.895 2.91483 14.4026C5.27643 16.4072 8.07224 17.4669 11 17.4669C13.9278 17.4669 16.7236 16.4073 19.0852 14.4026C20.8612 12.895 21.7659 11.3932 21.8035 11.33L22 11L21.8035 10.6702ZM18.2508 13.4197C16.095 15.2497 13.6555 16.1776 11 16.1776C8.35931 16.1776 5.93128 15.2594 3.78323 13.4485C2.63196 12.4779 1.87172 11.495 1.52346 10.9994C1.86656 10.5101 2.61121 9.54641 3.74915 8.58043C5.90498 6.75039 8.34453 5.82252 11 5.82252C13.6407 5.82252 16.0687 6.74068 18.2168 8.5516C19.368 9.52222 20.1282 10.5052 20.4765 11.0007C20.1334 11.49 19.3888 12.4537 18.2508 13.4197Z"
        fill="#686E70" />
    <path
        d="M11.0002 6.78442C8.67572 6.78442 6.78467 8.67548 6.78467 11C6.78467 13.3244 8.67572 15.2155 11.0002 15.2155C13.3247 15.2155 15.2157 13.3244 15.2157 11C15.2157 8.67548 13.3247 6.78442 11.0002 6.78442ZM11.0002 13.9262C9.38664 13.9262 8.07394 12.6135 8.07394 11C8.07394 9.3864 9.38664 8.0737 11.0002 8.0737C12.6138 8.0737 13.9265 9.3864 13.9265 11C13.9265 12.6135 12.6138 13.9262 11.0002 13.9262Z"
        fill="#686E70" />
    <path
        d="M11.0004 11.8476C11.4685 11.8476 11.848 11.4681 11.848 11C11.848 10.5319 11.4685 10.1525 11.0004 10.1525C10.5323 10.1525 10.1528 10.5319 10.1528 11C10.1528 11.4681 10.5323 11.8476 11.0004 11.8476Z"
        fill="#686E70" />
</svg>

<svg xmlns="http://www.w3.org/2000/svg" width="22" height="22" fill="none"><path d="M21.8 10.7s-1-1.6-2.7-3.1a12.4 12.4 0 0 0-16.2 0c-1.8 1.5-2.7 3-2.7 3L0 11l.2.3s1 1.6 2.7 3.1a12.4 12.4 0 0 0 16.2 0c1.8-1.5 2.7-3 2.7-3l.2-.4-.2-.3Zm-3.5 2.7a11 11 0 0 1-14.5 0c-1.2-1-2-2-2.3-2.4.4-.5 1.1-1.5 2.2-2.4a11 11 0 0 1 14.5 0c1.2 1 2 2 2.3 2.4-.4.5-1.1 1.5-2.2 2.4Z" fill="#686E70"/><path d="M11 6.8a4.2 4.2 0 1 0 0 8.4 4.2 4.2 0 0 0 0-8.4Zm0 7.1a3 3 0 1 1 0-5.8 3 3 0 0 1 0 5.8Z" fill="#686E70"/><path d="M11 11.8a.8.8 0 1 0 0-1.6.8.8 0 0 0 0 1.6Z" fill="#686E70"/></svg>
